X:57
T:Mrs. Stewart (Kirkmichael's) Reel
C:R. Petrie
S:Petrie's Second Collection of Strathspey Reels and Country Dances &c.
Z:Steve Wyrick , 6/11/04
N:Petrie's Second Collection, page 20
L:1/8
M:C
R:Reel
K:D
F|E2 (BG) E2 (B,E)|D2 (FG) AFDF|E2 (BG) E2 B,^c|dBAF            dEE        :|
F|E(BTBA) Bdef    |dBAd    FDAF|E(BTBA) Bdef  |dBAF            BEEF        |
  E(BTBA) Bdef    |dBAd    FDAF|GBEF    GABg  |f[^da][gg][ff] [eg][Ee][Ee]|]
